packages/icons/svg/Various_Balcony_48px.svg

<svg xmlns="http://www.w3.org/2000/svg" viewBox="0 0 48 48"><path d="M42.5 25h-37a1.5 1.5 0 000 3H7v13.09A1.5 1.5 0 007.5 44h33a1.5 1.5 0 00.5-2.91V28h1.5a1.5 1.5 0 000-3zM17 28h2v13h-2zm-2 13h-2V28h2zm6-13h2v13h-2zm4 0h2v13h-2zm4 0h2v13h-2zm4 0h2v13h-2zm-22 0v13H9V28zm28 13h-2V28h2zM13 14h10v9h2v-9h10v9h3V6a2 2 0 00-2-2H12a2 2 0 00-2 2v17h3zm22-2H25V7h10zM23 7v5H13V7z"/><path d="M28 21a1 1 0 000 2h3a1 1 0 000-2z"/></svg>

<svg xmlns="http://www.w3.org/2000/svg" viewBox="0 0 48 48"><defs></defs><g id="Icon"><path  d="M42.5,25H5.5a1.5,1.5,0,0,0,0,3H7V41.09A1.5,1.5,0,0,0,7.5,44h33a1.5,1.5,0,0,0,.5-2.91V28h1.5a1.5,1.5,0,0,0,0-3ZM17,28h2V41H17ZM15,41H13V28h2Zm6-13h2V41H21Zm4,0h2V41H25Zm4,0h2V41H29Zm4,0h2V41H33ZM11,28V41H9V28ZM39,41H37V28h2Z"/><path  d="M13,14H23v9h2V14H35v9h3V6a2,2,0,0,0-2-2H12a2,2,0,0,0-2,2V23h3Zm22-2H25V7H35ZM23,7v5H13V7Z"/><path  d="M28,21a1,1,0,0,0,0,2h3a1,1,0,0,0,0-2Z"/></g></svg>
